X:1
T:Ung capitaine de pillarrs
T:Ung capitaine de pillarrs
T:Antoine Barbé
C:Antoine Barbé
%%score [ 1 [ 2 3 ] 4 ]
L:1/8
Q:1/4=76
M:2/2
K:F
V:1 treble nm="Superius" snm="S"
V:2 treble-8 nm="Tenor 1" snm="T 1"
V:3 treble-8 nm="Tenor 2" snm="T 2"
V:4 bass nm="Bassus" snm="B"
V:1
 G4 G2 G2 | F2 D2 E2 F2 | G2 G2 B2 B2 | A2 G2 G2 F2 | G8 | z8 | z8 | z4 z2 G2 | B2 B2 A2 G2 | %9
w: Ung ca- pi-|tai- ne de pil-|lars qui se dict|de Pier- roie si-|gneur,|||sur-|pren- dre la vil-|
"^#" G2 F2 G4 | F4 G4 | z2 G2 B2 B2 | A2 G2 F2 B2 | B2 A2 B2 A2 | B2 A2 B2 A2 | z2 A2 B2 A2 | %16
w: le d'hon- neur|d'An- vers,|mais à son|des- hon- neur se|re- ti- ra, com-|me'u- n'es- cou- fle|se re- ti-|
 B4 A2 A2 | B2 B2 A3 G | F2 E2 F4 | (3B2 B2 B2 A4 | (3d2 d2 d2 c2 B2 |"^#" A2 G2 F4 | G8 | z8 | %24
w: ra vis- te-|ment mon- strant _|a- voir peur.|On ne prent point,|on ne prent point tel|chat sans mouf-|fle.||
 z8 | z8 | z4 z2 G2 | G2 G2 F2 D2 | E2 F2 G2 A2 | B2 A2 F2 G2- | G2 F2 E4 | D4 z4 | z2 A2 A2 B2 | %33
w: ||Com-|prit aux prin- ces|et ba- rons, di-|sant j'ay brus- lé|_ lieux di-|vers,|j'ay pil- lé|
 c2 A2 B2 G2 | F2 A2 B2 G2 |"^b" F2 G2 E2 F2 | G8 | z8 | z8 | d4 d2 B2 | c2 A2 B2 G2 | c2 B4 A2 | %42
w: à tors et tra-|vers, j'ay pil- lé|à tors et tra-|vers,|||j'ay pas- sé|Wal- hem, aus- si|Douf- * *|
 B4 z2 B2 | B2 d2 c3 B | A2 G2 F4 | (3B2 B2 B2 A4 | (3A2 A2 A2 G2 G2 | F2 F2 E4 | FEFG A2 G2- | %49
w: fle, mais|j'ay fail- li à|pren- dre'An- vers.|On ne prent point,|on ne prent point tel|chat sans mouf-||
"^#" G2 F2 G4- | G4 z2 G2 | G2 G2 FDEF | G2 G2 B2 B2 | A3 G F2 G2 | E2 D2 z4 | z8 | z2 F2 B3 A | %57
w: * * fle,|_ Fran-|çois, si vos deux cham- pi-|ons Lon- ge- val|et aus- si Pi-|roy- e,||a- voient- mis|
 G2 G2 F2 D2 | E2 D4 C2 | D2 d2 d2 d2 | c3 B AG F2- | F2 E2 F4 | z B,DD F3 E | DB, F2 B,B,DD | %64
w: siè- ge'au cul ma-|roy- * *|e, et fus- sent|tous de- dens sa roy-|* * e|de- vant le trou qui|si bien souf- fle, de- vant le|
 FGAB c2 B2- | BA/G/ A2 B2 F2 | G2 G2 G2 G2 | G2 F2 E2 F2 | (3B2 B2 B2 A4 | (3d2 d2 d2 c2 B2 | %70
w: trou qui si bien souf- *|* * * * fle, il|les souf- fle- roit|jus- qu'à roy- e.|On ne prent point,|on ne prent point tel|
 A2 G2 F2 G2 |[M:6/4] d2 d2 d2 c4 B2 | A4 G4 F4 | G12 |] %74
w: chat sans mouf- fle,|on ne prent point tel|chat sans mouf-|fle.|
V:2
 z8 | z8 | z8 | z8 | d4 d2 d2 | c2 A2 B2 c2 | d2 d2 f2 f2 | e2 d2 d2 c2 | d4 z2 d2 | d2 d2 d2 d2 | %10
w: ||||Ung ca- pi-|tai- ne de pil-|lars, sur- pren- dre|la vil- le d'hon-|neur, la|vil- le d'hon- neur|
 d4 _e4 |"^b""^b" z2 e2 d2 e2 | c2 c2 d2 f2 | f2 f2 f4 | z2 f2 d2 f2 | e2 d2 z2 d2 | d2 d2 z2 d2 | %17
w: d'An- vers,|mais à son|des- hon- neur se|re- ti- ra,|com- me'u- n'es-|cou- fle vis-|te- ment, vis-|
 d2 d2 f2 f2 | B2 c2 d4 | (3f2 f2 f2 f4 | (3f2 f2 f2 f2 f2 | f2 d2 d4 | B8 | z2 d2 d2 d2 | %24
w: te- ment, mon- strant|a- voir peur.|On ne prent point,|on ne prent point tel|chat sans mouf-|fle.|En Fran- c'em-|
 c2 A2 B2 c2 | d2 e2 f2 e2 | c2 d2 e2 d2- | d2 c2 d4 | z8 | z8 | z4 z2 e2 | f2 d2 c2 d2 | %32
w: me- nit ses lar-|rons en ses faictz|vil- lains _ _|_ par- vers,|||j'ay|pil- lé à tors|
 B2 c2 d4 | z8 |"^b" z2 f2 f2 e2 | d2 B2 c2 A2 | G4 d4 | e2 c2 d2 B2 | _e2 f2 e4 | d2 d2 g4 | %40
w: et tra- vers,||[j'ay pil- lé|à tors et tra-|vers, j'ay|pas- sé Wal- hem|aus- si Douf-|fle, j'ay pas-|
 _e2 f2 d2 g2- |"^b" g2 e2 f4 | d2 d2 d2 d2 | G2 g2 g2 g2 | c2 e2 d2 d2 | d4 (3f2 f2 f2 | %46
w: sé- Wal- hem, aus-|* si Douf-|fle, mais j'ay fail-|li, mais j'ay fail-|li à pren- dre'An-|vers. On ne prent|
 c2 c2 e2 e2 | d2 B2 (3c2 c2 c2 | d2 d2 e2 c2 | d4 d4 | z8 | z8 | z8 | z8 | z2 d2 d2 d2 | cABc d4 | %56
w: point tel chat sans|mouf- fle, on ne prent|point tel chat sans|mouf- fle,|||||a- vec cent|mil- le mor- pi- ons|
"^b" d2 f2 e2 d2- | d2 c2 d2 d2 | c2 A2 z2 A2 | AA B2 F2 f2 | f2 f2 e2 d2 | B2 B2 c4 | d4 z Bdd | %63
w: a- voient- mis siè-|* ge'au cul ma-|roy- e, au|cul ma- roye, et fus-|sent tous de- dens|sa roy- *|e de- vant le|
 f3 e dB f2 | B2 c2 A2 B2 | c4 B2 d2 | _e2 e2 e2 e2 |"^b" e2 d2 c2 A2 | (3f2 f2 f2 f4 | %69
w: trou qui si bien souf-|fle, qui si bien|souf- fle, il|les souf- fle- roit|jus- qu'à roy- e.|On ne prent point,|
 (3f2 f2 f2 f2 f2 | f2 d2 d2 B2 |[M:6/4] f2 f2 f2 f4 f2 | f4 d4 d4 |"^-natural" B12 |] %74
w: on ne prent point tel|chat sans mouf- fle,|on ne prent point tel|chat sans mouf-|fle.|
V:3
 G4 B2 c2 | d2 B2 c2 A2 | G2 c2 B2 G2 | A2 B2 c2 A2 | G8 | z8 | z8 | z4 z2 G2 | F2 G2 A2 B2 | %9
w: Ung ca- pi-|tai- ne de pil-|lars qui se dict|de Pier- roie si-|gneur,|||sur-|pren- dre la vil-|
 A2 A2 G4 | A4 c2 G2 | c2 c2 B2 B2 | c2 G2 A2 B2 | c2 c2 d2 c2 | B2 c2 z2 F2 | G2 F2 G2 D2 | %16
w: le d'hon- neur|d'An- vers, mais|à son des- hon-|neur se re- ti-|ra com- me'u- n'es-|cou- fle, com-|me'u- n'es- cou- fle,|
 z2 G2 d2 d2 | B4 c4 | d2 G2 B4 | (3d2 d2 d2 c4 | (3B2 B2 B2 A2 d2 | c2 B2 A4 | G8 | z8 | z8 | z8 | %26
w: vis- te- ment,|mon- strant|a- voir peur.|On ne prent point,|on ne prent point tel|chat sans mouf-|fle.||||
 z4 z2 G2 | G2 G2 B2 B2 | A2 A2 G2 d2 | B2 c2 d2 e2- | e2 d4 c2 | d4 z4 | z2 e2 f2 d2 | %33
w: Com-|prit aux prin- ces|et ba- rons, di-|sant j'ay brus- lé|_ lieux di-|vers,|j'ay pil- lé|
 c2 d2 B2 c2 | d4 z4 | z8 | d4 d2 B2 | c2 A2 B2 G2 | c2 B4 A2 |"^b" B4 d2 e2 |"^b" c2 d2 B2 e2- | %41
w: à tors et tra-|vers,||j'ay pas- sé|Wal- hem aus- si|Douf- * *|fle, j'ay pas-|sé Wal- hem aus-|
 ed B2 c4 | B4 z2 d2 | d2 d2 e2 c2 | c2 c2 A4 | z4 (3d2 d2 d2 | A2 A2 c2 G2 | B2 F2 (3G2 G2 G2 | %48
w: * si Douf- *|fle, mais|j'ay fail- li à|pren- dre'An- vers.|On ne prent|point tel chat sans|mouf- fle, on ne prent|
 B2 A2 c2 G2 | A4 G4 | z2 c2 c2 c2 | BABc d2 c2 | _e2 e2 d2 B2 | c3 B A2 G2 | z8 | z4 z2 G2 | %56
w: point tel chat sans|mouf- fle,|Fran- çois, si|vos deux cham- pi- ons Lon-|ge- val et aus-|si Pi- roy- e,||a-|
 B2 A2 G2 F2 | G2 z G B3 A | GGFD E4 | D2 F2 B2 B2 | AGAB c2 d2- | dc B4 A2 | B2 z B dd f2- | %63
w: voient- mis siè- ge'au|cul, a- voient mis|siè- ge'au cul ma- roy-|e, et fus- sent|tous de- dens sa roy- *||e de- vant le trou|
 fedB f2 B2 | z2 A2 F3 G | A2 F2 z2 B2 | B2 G2 B2 c2 | B2 A2 G2 F2 | (3d2 d2 d2 c4 | %69
w: _ qui si bien souf- fle,|qui si bien|souf- fle, il|les souf- fle- roit|jus- qu'à roy- e.|On ne prent point,|
 (3B2 B2 B2 A2 d2 | c2 B2 A2 G2 |[M:6/4] B2 B2 B2 A4 d2 | c4 B4 A4 | G12 |] %74
w: on ne prent point tel|chat sans mouf- fle,|on ne prnt point tel|chat sans mouf-|fle.|
V:4
 z8 | z8 | z8 | z8 | G,4 B,2 B,2 | A,2 F,2 G,2 E,2 | D,2 G,2 F,2 D,2 | E,2 F,2 G,2 E,2 | %8
w: ||||Cui- doit a-|vec- que ses pail-|lars, sur- pren- dre|la vil- le d'hon-|
 D,2 G,2 F,2 G,2 | D,4 G,,4 | D,4 C,4 | z2 C,2 G,2 G,2 | F,2 E,2 D,2 B,,2 | F,2 F,2 B,,2 F,2 | %14
w: neur, la vil- le|d'hon- neur|d'An- vers,|mais à son|des- hon- neur se|re- ti- ra com-|
 G,2 F,2 G,2 D,2 | z2 D,2 G,2 F,2 | G,4 D,2 D,2 | G,2 G,2 F,3 E, | D,2 C,2 B,,4 | %19
w: me'u- n'es- cou- fle,|com- me'u- n'es-|cou- fle, vis-|te- ment mon- strant|a- voir peur.|
 (3B,,2 B,,2 B,,2 F,4 | (3B,,2 B,,2 B,,2 F,2 B,,2 | F,2 G,2 D,4 | G,,4 z2 G,2 | G,2 G,2 F,2 D,2 | %24
w: On ne prent point,|on ne prent point tel|chat sans mouf-|fle. En|Fran- c'em- me- nit|
 E,2 F,2 G,2 A,2 | B,2 A,2 F,2 G,2 | A,2 G,2- G,F,E,D, | E,4 D,4 | z8 | z8 | z4 A,4 | %31
w: ses lar- rons en|ses faictz vil- lains|par- * * * * *|* vers,|||j'ay|
 F,2 G,2 A,2 B,2 | G,2 A,2 D,4 | z8 | z2 D,2 B,,2 C,2 |"^b" D,2 E,2 C,2 D,2 | G,,2 G,4 G,2 | %37
w: pil- lé à tors|et tra- vers,||j'ay pil- lé|à tors et tra-|vers, j'ay pas-|
 E,2 F,2 D,2 E,2- |"^b" E,2 D,2 C,4 | B,,2 B,4 G,2 | A,2 F,2 G,4 | _E,2 G,2 F,4 | %42
w: sé Wal- hem aus-|* si Douf-|fle, j'ay pas-|sé Wal- hem|aus- si Douf-|
"^b""^b" B,,4 z2 G,2 | G,2 G,2 C,2 C,2 | C,2 C,2 D,4 | (3G,2 G,2 G,2 D,4 | (3F,2 F,2 F,2 C,2 _E,2 | %47
w: fle, mais|j'ay fail- li à|pren- dre'An- vers.|On ne prent point,|on ne prent point tel|
 B,,2 D,2 C,4 | B,,2 D,2 C,2 E,2 | D,4 G,,4 | z8 | z8 | z8 | z4 z2 G,2 | G,2 G,2 F,E,F,G, | %55
w: chat sans mouf-|fle, tel chat sans|mouf- fle,||||a-|vec cent mil- le mor- pi-|
 A,2 G,2 B,3 A, | G,2 F,2 G,2 D,2 |"^b" E,4 D,2 B,,2 | C,2 D,2 A,,4 | D,2 B,,2 B,,2 B,,2 | %60
w: ons a- voient mis|siè- ge'au cul ma-|roy- e, au|cul ma- roy-|e, et fus- sent|
 F,3 G, A,2 B,2 | G,4 F,4 | z2 B,,2 B,,2 B,,2 |"^b" B,,4 z2 B,,2 | D,D, F,2- F,E,D,B,, | %65
w: tous de- dens sa|roy- e|de- vant le|trou qui|si bie,n souf- * * * *|
 F,4 B,,2 B,,2 | _E,2 E,2 E,2 C,2 |"^b" E,2 F,2 C,2 D,2 |"^#" (3B,,2 B,,2 B,,2 F,4 | %69
w: * fle, il|les souf- fle- roit|jus- qu'à roy- e.|On ne prent point,|
 (3B,,2 B,,2 B,,2 F,2 B,,2 |"^b" F,2 G,2 D,2 E,2 |[M:6/4] B,,2 B,,2 B,,2 F,4 B,,2 | F,4 G,4 D,4 | %73
w: on ne prent point tel|chat sans mouf- fle,|on ne prent point tel|chat sans mouf-|
 G,,12 |] %74
w: fle.|

